!!!OTL: Zhao jingzi
!!!ARE: Asia, China,ÿJiangxi, Ganzhou
!! IV, 239
!!!SCT: C1680
!!!YEM: Copyright 1995, estate of Helmut Schaffrath.
**kern
*ICvox
*Ivox
*M4/4
*k[]
*C:
{8a
16a
16cc
8g
8e
2d
=1
8.dd
16cc
16a
16g
16a
16cc
2dd}
=2
{8a
8g
8a
8dd
8cc
8a
4g
=3
8cc
8g
2a
4r}
=4
{8a
8cc
8g
16e
16g
2a
=5
8.d
16e
8g
8e
2d}
=6
{8dd
8dd
8dd
8ee
8dd
16a
16cc
8g
8a
=7
4.cc
8dd}
{8e
8g
8cc
16cc
16a
=8
4g
8a
16a
16e
2g}
==
!!!AGN: Xiaodiao
!!!AMT: simple quadruple
!!!AIN: vox
!!!EED: Helmut Schaffrath
!!!EEV: 1.0
*-
